components/ui-node-icon/src/golden/golden.large.svg

<svg width="32" height="32" viewBox="0 0 32 32" fill="none" xmlns="http://www.w3.org/2000/svg">
  <path fill-rule="evenodd" clip-rule="evenodd" d="M6 4C4.34315 4 3 5.34315 3 7V25C3 26.6569 4.34315 28 6 28H19.7084C18.0475 26.5341 17 24.3894 17 22C17 17.5817 20.5817 14 25 14C26.4571 14 27.8233 14.3896 29 15.0703V7C29 5.34315 27.6569 4 26 4H6Z" fill="var(--tbl--colors--icons--clean--secondary)"/>
  <path fill-rule="evenodd" clip-rule="evenodd" d="M6 4C4.34315 4 3 5.34315 3 7V8H29V7C29 5.34315 27.6569 4 26 4H6ZM31 22C31 25.3137 28.3137 28 25 28C21.6863 28 19 25.3137 19 22C19 18.6863 21.6863 16 25 16C26.5616 16 27.9838 16.5966 29.0513 17.5742L24.9005 22.5032L23.7231 21.2236C23.3417 20.8242 22.7087 20.8097 22.3093 21.1912C21.9099 21.5726 21.8954 22.2056 22.2769 22.605L24.2242 24.6907C24.4204 24.8961 24.6947 25.0084 24.9787 24.9995C25.2626 24.9906 25.5293 24.8614 25.7123 24.6442L30.3037 19.1919C30.7482 20.0297 31 20.9855 31 22Z" fill="var(--tbl--colors--icons--clean--primary)"/>
</svg>

<svg xmlns="http://www.w3.org/2000/svg" width="32" height="32" fill="none" viewBox="0 0 32 32">
  <path fill="var(--tbl--colors--icons--clean--secondary)" fill-rule="evenodd" d="M6 4a3 3 0 0 0-3 3v18a3 3 0 0 0 3 3h13.708A8 8 0 0 1 29 15.07V7a3 3 0 0 0-3-3H6Z" clip-rule="evenodd"/>
  <path fill="var(--tbl--colors--icons--clean--primary)" fill-rule="evenodd" d="M6 4a3 3 0 0 0-3 3v1h26V7a3 3 0 0 0-3-3H6Zm25 18a6 6 0 1 1-1.949-4.426l-4.15 4.93-1.178-1.28a1 1 0 1 0-1.446 1.381l1.947 2.086a1 1 0 0 0 1.488-.047l4.592-5.452c.444.838.696 1.793.696 2.808Z" clip-rule="evenodd"/>
</svg>
